X:1
T: The Hiawatha Hornpipe
C:
R:Reel
Q: 232
K:Bb
M:4/4
L:1/8
|:F2|BD FB dF Ac|BD FB dF Bd|eA ce fA cf|^fA cf =f=e _ec|
BD FB dF Ac|BD FB dF Bd|eA ce f=e _ec|1B2 b2 B2:|2B2 b2 B2 ((3fga)|
|:bB dg bB ba|gG =Bd gG gf|eE Gc eE ec|Bf dB Af ga|
bB dg bB ba|gG =Bd gG gf|ed cB AF EC|1B,2 B2 B,2 ((3FGA):|2B,2 B2 B,2||
